;FLAVOR:Marlin
;TIME:5221
;Filament used: 3.00504m
;Layer height: 0.15
;MINX:78.332
;MINY:64.08
;MINZ:0.2
;MAXX:171.67
;MAXY:145.452
;MAXZ:9.95
;Generated with Cura_SteamEngine 5.2.2
M82 ;absolute extrusion mode
G21 ; set units to millimeters
G90 ; use absolute positioning
M82 ; absolute extrusion mode
M104 S200 ; set extruder temp
M140 S60 ; set bed temp
M190 S60 ; wait for bed temp
M109 S200 ; wait for extruder temp
G28 W ; home all without mesh bed level
G80 ; mesh bed leveling
G92 E0.0 ; reset extruder distance position
G1 Y-3.0 F1000.0 ; go outside print area
G1 X60.0 E9.0 F1000.0 ; intro line
G1 X100.0 E21.5 F1000.0 ; intro line
G92 E0.0 ; reset extruder distance position
G92 E0
G92 E0
G1 F2100 E-0.8
;LAYER_COUNT:66
;LAYER:0
M107
G0 F3600 X81.854 Y74.314 Z0.2
;TYPE:SKIRT
G1 F2100 E0
G1 F1800 X82.487 Y73.723 E0.0288
G1 X83.026 Y73.235 E0.05299
G1 X83.617 Y72.717 E0.07913
G1 X84.399 Y72.139 E0.11147
G1 X85.541 Y71.333 E0.15796
G1 X86.645 Y70.667 E0.20084
G1 X87.299 Y70.29 E0.22595
G1 X88.131 Y69.834 E0.25751
G1 X89.795 Y69.039 E0.31884
G1 X90.425 Y68.752 E0.34187
G1 X90.974 Y68.522 E0.36167
G1 X92.554 Y67.909 E0.41803
G1 X93.115 Y67.702 E0.43792
G1 X94.137 Y67.358 E0.47379
G1 X95.456 Y66.939 E0.51982
G1 X96.25 Y66.699 E0.54741
G1 X96.897 Y66.524 E0.5697
G1 X98.565 Y66.095 E0.62698
G1 X99.389 Y65.896 E0.65518
G1 X101.819 Y65.397 E0.73769
G1 X102.854 Y65.204 E0.7727
G1 X105.144 Y64.851 E0.84977
G1 X106.306 Y64.69 E0.88879
G1 X108.64 Y64.438 E0.96687
G1 X109.776 Y64.335 E1.0048
G1 X112.215 Y64.179 E1.08609
G1 X113.257 Y64.127 E1.12079
G1 X115.461 Y64.08 E1.19411
G1 X117.279 Y64.081 E1.25458
G1 X118.851 Y64.17 E1.30695
G1 X121.638 Y64.309 E1.39976
G1 X124.357 Y64.369 E1.49022
G1 X127.108 Y64.351 E1.58172
G1 X129.819 Y64.256 E1.67194
G1 X130.877 Y64.184 E1.70721
G1 X131.005 Y64.186 E1.71147
G1 X132.341 Y64.108 E1.75598
G1 X132.867 Y64.092 E1.77348
G1 X134.403 Y64.09 E1.82457
G1 X136.317 Y64.12 E1.88824
G1 X137.338 Y64.152 E1.92221
G1 X139.406 Y64.284 E1.99114
G1 X141.603 Y64.474 E2.06448
G1 X143.544 Y64.683 E2.12941
G1 X144.583 Y64.811 E2.16423
G1 X146.885 Y65.162 E2.24168
G1 X147.833 Y65.321 E2.27365
G1 X149.852 Y65.725 E2.34214
G1 X150.721 Y65.915 E2.37172
G1 X151.382 Y66.078 E2.39436
G1 X153.08 Y66.519 E2.45271
G1 X153.975 Y66.767 E2.4836
G1 X156.357 Y67.509 E2.56658
G1 X157.816 Y68.045 E2.61828
G1 X158.758 Y68.413 E2.65192
G1 X159.415 Y68.68 E2.67551
G1 X159.916 Y68.901 E2.69372
G1 X161.281 Y69.548 E2.74396
G1 X161.927 Y69.865 E2.76789
G1 X162.709 Y70.301 E2.79767
G1 X163.645 Y70.846 E2.8337
G1 X164.379 Y71.293 E2.86228
G1 X165.215 Y71.866 E2.89599
G1 X166.297 Y72.647 E2.94037
G1 X167.081 Y73.334 E2.97504
G1 X168.121 Y74.291 E3.02205
G1 X168.651 Y74.904 E3.049
G1 X169.614 Y76.075 E3.09943
G1 X170.203 Y77.062 E3.13766
G1 X170.604 Y77.774 E3.16484
G1 X170.825 Y78.257 E3.1825
G1 X171.14 Y79.135 E3.21353
G1 X171.351 Y79.772 E3.23585
G1 X171.496 Y80.368 E3.25625
G1 X171.602 Y81.271 E3.28649
G1 X171.669 Y81.975 E3.31001
G1 X171.667 Y82.596 E3.33067
G1 X171.588 Y83.388 E3.35714
G1 X171.479 Y84.252 E3.3861
G1 X170.887 Y87.219 E3.48673
G1 X170.429 Y89.923 E3.57795
G1 X170.047 Y92.644 E3.66934
G1 X169.744 Y95.353 E3.76
G1 X169.516 Y98.092 E3.85141
G1 X169.367 Y100.808 E3.94188
G1 X169.294 Y103.56 E4.03345
G1 X169.299 Y106.279 E4.12388
G1 X169.382 Y109.029 E4.21539
G1 X169.543 Y111.782 E4.30711
G1 X169.776 Y114.481 E4.39721
G1 X170.094 Y117.23 E4.48926
G1 X170.479 Y119.906 E4.57918
G1 X170.95 Y122.619 E4.67076
G1 X171.297 Y124.382 E4.73052
G1 X171.474 Y125.24 E4.75966
G1 X171.6 Y126.244 E4.79332
G1 X171.669 Y126.929 E4.81621
G1 X171.67 Y127.559 E4.83717
G1 X171.589 Y128.384 E4.86474
G1 X171.493 Y129.142 E4.89015
G1 X171.354 Y129.751 E4.91093
G1 X171.09 Y130.544 E4.93873
G1 X170.839 Y131.242 E4.9634
G1 X170.617 Y131.728 E4.98117
G1 X170.253 Y132.374 E5.00583
G1 X169.608 Y133.447 E5.04747
G1 X168.729 Y134.518 E5.09355
G1 X168.115 Y135.233 E5.1249
G1 X166.997 Y136.262 E5.17544
G1 X166.393 Y136.793 E5.20219
G1 X165.571 Y137.399 E5.23615
G1 X164.467 Y138.178 E5.28109
G1 X163.416 Y138.814 E5.32195
G1 X162.134 Y139.546 E5.37105
G1 X161.277 Y139.971 E5.40287
G1 X160.18 Y140.487 E5.44319
G1 X159.586 Y140.756 E5.46488
G1 X159.106 Y140.958 E5.4822
G1 X157.433 Y141.602 E5.54182
G1 X156.676 Y141.881 E5.56866
G1 X155.941 Y142.128 E5.59445
G1 X154.565 Y142.571 E5.64253
G1 X153.758 Y142.817 E5.67059
G1 X153.049 Y143.011 E5.69503
G1 X151.362 Y143.448 E5.753
G1 X150.476 Y143.663 E5.78332
G1 X149.918 Y143.783 E5.8023
G1 X148.29 Y144.113 E5.85755
G1 X147.449 Y144.271 E5.88601
G1 X145.053 Y144.643 E5.96666
G1 X143.947 Y144.794 E6.00379
G1 X141.623 Y145.044 E6.08153
G1 X139.465 Y145.23 E6.15357
G1 X137.911 Y145.333 E6.20537
G1 X136.893 Y145.386 E6.23927
G1 X133.859 Y145.448 E6.34021
G1 X133.064 Y145.45 E6.36665
G1 X131.504 Y145.428 E6.41854
G1 X128.743 Y145.428 E6.51037
G1 X127.649 Y145.451 E6.54677
G1 X118.18 Y145.452 E6.86171
G1 X115.39 Y145.435 E6.9545
G1 X113.681 Y145.399 E7.01136
G1 X112.533 Y145.358 E7.04956
G1 X110.22 Y145.211 E7.12665
G1 X108.983 Y145.114 E7.16792
G1 X106.692 Y144.868 E7.24456
G1 X105.577 Y144.73 E7.28192
G1 X103.278 Y144.379 E7.35928
G1 X102.356 Y144.224 E7.39037
G1 X100.031 Y143.757 E7.46925
G1 X99.075 Y143.547 E7.5018
G1 X96.907 Y142.994 E7.57622
G1 X96.117 Y142.778 E7.60346
G1 X95.438 Y142.573 E7.62705
G1 X93.965 Y142.104 E7.67846
G1 X93.424 Y141.923 E7.69744
G1 X92.362 Y141.533 E7.73507
G1 X91.196 Y141.08 E7.77667
G1 X90.323 Y140.724 E7.80803
G1 X88.669 Y139.944 E7.86885
G1 X87.886 Y139.555 E7.89793
G1 X87.309 Y139.232 E7.91992
G1 X86.382 Y138.698 E7.95551
G1 X85.911 Y138.416 E7.97377
G1 X84.683 Y137.58 E8.02318
G1 X83.651 Y136.828 E8.06565
G1 X82.921 Y136.186 E8.09798
G1 X81.854 Y135.203 E8.14623
G1 X81.031 Y134.232 E8.18857
G1 X80.38 Y133.428 E8.22298
G1 X79.793 Y132.445 E8.26106
G1 X79.403 Y131.756 E8.28739
G1 X79.184 Y131.283 E8.30473
G1 X78.936 Y130.602 E8.32883
G1 X78.651 Y129.75 E8.35871
G1 X78.512 Y129.146 E8.37933
G1 X78.408 Y128.342 E8.40629
G1 X78.332 Y127.591 E8.4314
G1 X78.332 Y126.954 E8.45258
G1 X78.422 Y126.06 E8.48247
G1 X78.524 Y125.271 E8.50893
G1 X79.064 Y122.59 E8.59989
G1 X79.529 Y119.902 E8.69062
G1 X79.917 Y117.207 E8.78118
G1 X80.234 Y114.445 E8.87365
G1 X80.466 Y111.765 E8.96312
G1 X80.625 Y109.015 E9.05474
G1 X80.708 Y106.249 E9.14678
G1 X80.712 Y103.546 E9.23668
G1 X80.637 Y100.775 E9.32888
G1 X80.489 Y98.082 E9.41858
G1 X80.257 Y95.312 E9.51103
G1 X79.957 Y92.633 E9.60069
G1 X79.574 Y89.913 E9.69205
G1 X79.109 Y87.181 E9.78423
G1 X78.66 Y84.899 E9.86158
G1 X78.521 Y84.239 E9.88402
G1 X78.398 Y83.249 E9.9172
G1 X78.332 Y82.591 E9.93919
G1 X78.332 Y81.954 E9.96038
G1 X78.423 Y81.057 E9.99037
G1 X78.512 Y80.373 E10.01331
G1 X78.642 Y79.772 E10.03376
G1 X78.94 Y78.905 E10.06425
G1 X79.183 Y78.237 E10.08789
G1 X79.397 Y77.768 E10.10504
G1 X79.693 Y77.239 E10.1252
G1 X80.386 Y76.079 E10.17014
G1 X80.962 Y75.365 E10.20066
G1 X81.854 Y74.314 E10.24651
G1 F2100 E9.44651
G0 F3600 X94.08 Y70.036
G0 X96.876 Y69.147
G0 X99.858 Y68.382
G0 X102.995 Y67.745
G0 X106.259 Y67.245
G0 X109.621 Y66.884
G0 X113.047 Y66.666
G0 X116.525 Y66.593
G0 X118.153 Y66.64
G0 X128.473 Y69.216
G0 X128.473 Y73.137
G0 X88.011 Y81.021
;TYPE:SUPPORT
G1 F2100 E10.24651
G1 F1800 X88.011 Y83.48 E10.32829
G1 F2100 E9.52829
G0 F3600 X86.683 Y82.677
G1 F2100 E10.32829
G1 F1800 X96.142 Y82.677 E10.6429
G1 X96.012 Y82.703
G1 X96.012 Y81.817 E10.67237
G0 F3600 X93.345 Y81.528
G1 F1800 X93.345 Y82.99 E10.72099
G0 F3600 X90.678 Y83.261
G1 F1800 X90.678 Y81.257 E10.78765
G1 F2100 E9.98765
G0 F3600 X103.21 Y88.011
G1 F2100 E10.78765
G1 F1800 X104.596 Y88.011 E10.83375
G0 F3600 X104.013 Y86.486
G1 F1800 X104.013 Y90.602 E10.97065
G1 X103.995 Y90.678
G1 X101.894 Y90.678 E11.04052
G1 F2100 E10.24052
G0 F3600 X104.013 Y78.015
G1 F2100 E11.04052
G1 F1800 X104.013 Y73.782 E11.18131
G0 F3600 X104.199 Y74.676
G1 F1800 X102.173 Y74.676 E11.2487
G1 F2100 E10.4487
G0 F3600 X103.651 Y77.343
G1 F2100 E11.2487
G1 F1800 X104.769 Y77.343 E11.28588
G1 F2100 E10.48588
G0 F3600 X122.682 Y73.944
G1 F2100 E11.28588
G1 F1800 X122.682 Y73.104 E11.31382
G0 F3600 X125.349 Y73.104
G1 F1800 X125.349 Y73.944 E11.34176
G1 F2100 E10.54176
G0 F3600 X128.473 Y73.137
G0 X128.473 Y69.216
G0 X125.349 Y69.204
G0 X125.349 Y69.249
G1 F2100 E11.34176
G1 F1800 X125.349 Y68.409 E11.3697
G0 F3600 X122.682 Y68.409
G1 F1800 X122.682 Y69.249 E11.39764
G1 F2100 E10.59764
G0 F3600 X122.682 Y69.204
G0 X127.371 Y69.213
G0 X132.42 Y69.342
G1 F2100 E11.39764
G1 F1800 X151.541 Y69.342 E12.03361
G0 F3600 X152.019 Y69.468
G1 F1800 X152.019 Y73.928 E12.18195
G0 F3600 X149.352 Y73.306
G1 F1800 X149.352 Y68.808 E12.33155
G0 F3600 X146.685 Y68.288
G1 F1800 X146.685 Y77.028 E12.62224
G0 F3600 X146.503 Y77.343
G1 F1800 X145.121 Y77.343 E12.66821
G0 F3600 X145.767 Y74.676
G1 F1800 X147.947 Y74.676 E12.74072
G1 F2100 E11.94072
G0 F3600 X144.018 Y72.63
G1 F2100 E12.74072
G1 F1800 X144.018 Y67.879 E12.89874
G0 F3600 X141.351 Y67.586
G1 F1800 X141.351 Y72.441 E13.06021
G0 F3600 X138.684 Y72.361
G1 F1800 X138.684 Y67.364 E13.22641
G0 F3600 X136.017 Y67.236
G1 F1800 X136.017 Y72.384 E13.39764
G0 F3600 X133.35 Y72.503
G1 F1800 X133.35 Y67.201 E13.57398
G1 F2100 E12.77398
G0 F3600 X132.416 Y72.009
G1 F2100 E13.57398
G1 F1800 X159.191 Y72.009 E14.46452
G0 F3600 X160.02 Y72.404
G1 F1800 X160.02 Y77.06 E14.61938
G0 F3600 X160.46 Y77.343
G1 F1800 X166.625 Y77.343 E14.82443
G0 F3600 X165.354 Y75.979
G1 F1800 X165.354 Y88.539 E15.24218
G0 F3600 X165.922 Y88.011
G1 F1800 X159.059 Y88.011 E15.47044
G0 F3600 X160.02 Y87.453
G1 F1800 X160.02 Y92.116 E15.62553
G1 F2100 E14.82553
G0 F3600 X157.353 Y93.296
G1 F2100 E15.62553
G1 F1800 X157.353 Y88.829 E15.77411
G1 F2100 E14.97411
G0 F3600 X154.686 Y89.835
G1 F2100 E15.77411
G1 F1800 X154.686 Y94.253 E15.92105
G0 F3600 X157.221 Y93.345
G1 F1800 X132.416 Y93.345 E16.74607
G0 F3600 X133.35 Y92.002
G1 F1800 X133.35 Y97.31 E16.92261
G0 F3600 X132.42 Y96.012
G1 F1800 X147.847 Y96.012 E17.43572
G0 F3600 X146.685 Y96.228
G1 F1800 X146.685 Y87.478 E17.72674
G0 F3600 X146.923 Y88.011
G1 F1800 X145.3 Y88.011 E17.78072
G0 F3600 X145.705 Y90.678
G1 F1800 X148.577 Y90.678 E17.87625
G0 F3600 X149.352 Y91.199
G1 F1800 X149.352 Y95.71 E18.02628
G0 F3600 X152.019 Y95.045
G1 F1800 X152.019 Y90.587 E18.17456
G0 F3600 X151.642 Y90.678
G1 F1800 X162.6 Y90.678 E18.53902
G1 X162.687 Y90.627
G1 X162.687 Y73.898 E19.09543
G0 F3600 X163.785 Y74.676
G1 F1800 X154.663 Y74.676 E19.39883
G1 X154.686 Y74.685
G1 X154.686 Y70.255 E19.54617
G0 F3600 X157.353 Y71.214
G1 F1800 X157.353 Y75.69 E19.69504
G1 F2100 E18.89504
G0 F3600 X157.353 Y81.481
G1 F2100 E19.69504
G1 F1800 X157.353 Y83.031 E19.7466
G0 F3600 X154.686 Y82.805
G1 F1800 X154.686 Y81.705 E19.78318
G0 F3600 X154.1 Y82.677
G1 F1800 X168.527 Y82.677 E20.26303
G0 F3600 X168.021 Y84.877
G1 F1800 X168.021 Y79.662 E20.43648
G0 F3600 X168.142 Y80.01
G1 F1800 X161.916 Y80.01 E20.64356
G0 F3600 X160.02 Y81.262
G1 F1800 X160.02 Y83.272 E20.71041
G0 F3600 X161.811 Y85.344
G1 F1800 X167.826 Y85.344 E20.91047
G1 F2100 E20.11047
G0 F3600 X144.018 Y91.891
G1 F2100 E20.91047
G1 F1800 X144.018 Y96.638 E21.06836
G0 F3600 X141.351 Y96.931
G1 F1800 X141.351 Y92.076 E21.22983
G0 F3600 X138.684 Y92.15
G1 F1800 X138.684 Y97.152 E21.3962
G0 F3600 X136.017 Y97.28
G1 F1800 X136.017 Y92.13 E21.56749
G1 F2100 E20.76749
G0 F3600 X127.822 Y90.678
G1 F2100 E21.56749
G1 F1800 X122.177 Y90.678 E21.75524
G0 F3600 X122.682 Y90.572
G1 F1800 X122.682 Y91.412 E21.78318
G0 F3600 X125.349 Y91.412
G1 F1800 X125.349 Y90.572 E21.81112
G1 F2100 E21.01112
G0 F3600 X128.473 Y91.379
G0 X128.473 Y95.3
G0 X125.349 Y95.312
G0 X125.349 Y95.267
G1 F2100 E21.81112
G1 F1800 X125.349 Y96.107 E21.83906
G0 F3600 X127.823 Y96.012
G1 F1800 X122.178 Y96.012 E22.02681
G0 F3600 X122.682 Y96.107
G1 F1800 X122.682 Y95.267 E22.05475
G1 F2100 E21.25475
G0 F3600 X122.682 Y95.312
G0 X133.35 Y112.179
G1 F2100 E22.05475
G1 F1800 X133.35 Y117.506 E22.23193
G0 F3600 X132.42 Y117.348
G1 F1800 X159.904 Y117.348 E23.14605
G1 X160.02 Y117.405
G1 X160.02 Y122.065 E23.30104
G0 F3600 X160.958 Y122.682
G1 F1800 X166.915 Y122.682 E23.49917
G0 F3600 X168.021 Y124.628
G1 F1800 X168.021 Y129.877 E23.67376
G0 F3600 X167.627 Y130.683
G1 F1800 X162.381 Y130.683 E23.84824
G0 F3600 X162.687 Y130.434
G1 F1800 X162.687 Y135.626 E24.02092
G0 F3600 X162.021 Y136.017
G1 F1800 X150.163 Y136.017 E24.41532
G0 F3600 X149.352 Y136.205
G1 F1800 X149.352 Y140.715 E24.56533
G0 F3600 X146.685 Y141.237
G1 F1800 X146.685 Y132.478 E24.85665
G0 F3600 X147.168 Y133.35
G1 F1800 X145.354 Y133.35 E24.91699
G0 F3600 X145.709 Y136.017
G1 F1800 X148.821 Y136.017 E25.02049
G1 F2100 E24.22049
G0 F3600 X152.019 Y135.584
G1 F2100 E25.02049
G1 F1800 X152.019 Y140.055 E25.1692
G0 F3600 X154.686 Y139.255
G1 F1800 X154.686 Y134.824 E25.31657
G0 F3600 X157.353 Y133.825
G1 F1800 X157.353 Y138.291 E25.46511
G0 F3600 X156.331 Y138.684
G1 F1800 X132.42 Y138.684 E26.2604
G0 F3600 X133.35 Y137.011
G1 F1800 X133.35 Y142.335 E26.43747
G0 F3600 X132.416 Y141.351
G1 F1800 X145.938 Y141.351 E26.88722
G0 F3600 X144.018 Y141.646
G1 F1800 X144.018 Y136.89 E27.0454
G0 F3600 X141.351 Y137.081
G1 F1800 X141.351 Y141.935 E27.20685
G0 F3600 X138.684 Y142.156
G1 F1800 X138.684 Y137.149 E27.37338
G0 F3600 X136.017 Y137.138
G1 F1800 X136.017 Y142.286 E27.5446
G1 F2100 E26.7446
G0 F3600 X145.111 Y122.682
G1 F2100 E27.5446
G1 F1800 X146.349 Y122.682 E27.58578
G0 F3600 X146.685 Y122.038
G1 F1800 X146.685 Y113.288 E27.87681
G0 F3600 X144.018 Y112.878
G1 F1800 X144.018 Y117.63 E28.03486
G0 F3600 X141.351 Y117.438
G1 F1800 X141.351 Y112.584 E28.1963
G0 F3600 X138.684 Y112.363
G1 F1800 X138.684 Y117.362 E28.36257
G0 F3600 X136.017 Y117.378
G1 F1800 X136.017 Y112.234 E28.53366
G1 F2100 E27.73366
G0 F3600 X132.217 Y114.681
G1 F2100 E28.53366
G1 F1800 X152.854 Y114.681 E29.22005
G0 F3600 X152.019 Y114.466
G1 F1800 X152.019 Y118.93 E29.36852
G0 F3600 X149.352 Y118.307
G1 F1800 X149.352 Y113.809 E29.51813
G1 F2100 E28.71813
G0 F3600 X154.686 Y115.257
G1 F2100 E29.51813
G1 F1800 X154.686 Y119.683 E29.66534
G0 F3600 X155.645 Y120.015
G1 F1800 X164.255 Y120.015 E29.95171
G0 F3600 X165.354 Y120.981
G1 F1800 X165.354 Y133.539 E30.36939
G0 F3600 X165.562 Y133.35
G1 F1800 X158.402 Y133.35 E30.60753
G0 F3600 X160.02 Y132.456
G1 F1800 X160.02 Y137.114 E30.76245
G1 F2100 E29.96245
G0 F3600 X162.687 Y129.284
G1 F2100 E30.76245
G1 F1800 X162.687 Y118.897 E31.10793
G1 F2100 E30.30793
G0 F3600 X157.353 Y120.682
G1 F2100 E31.10793
G1 F1800 X157.353 Y116.214 E31.25653
G1 F2100 E30.45653
G0 F3600 X161.819 Y125.349
G1 F2100 E31.25653
G1 F1800 X168.269 Y125.349 E31.47106
G0 F3600 X168.489 Y128.016
G1 F1800 X157.67 Y128.016 E31.8309
G0 F3600 X157.432 Y128.016
G1 F1800 X157.005 Y128.016 E31.8451
G0 F3600 X157.353 Y128.029
G1 F1800 X157.353 Y126.48 E31.89662
G0 F3600 X160.02 Y126.26
G1 F1800 X160.02 Y128.272 E31.96354
G1 F2100 E31.16354
G0 F3600 X154.686 Y127.809
G1 F2100 E31.96354
G1 F1800 X154.686 Y126.708 E32.00016
G1 F2100 E31.20016
G0 F3600 X147.767 Y120.015
G1 F2100 E32.00016
G1 F1800 X145.638 Y120.015 E32.07097
G1 F2100 E31.27097
G0 F3600 X126.448 Y117.348
G1 F2100 E32.07097
G1 F1800 X123.415 Y117.348 E32.17185
G1 F2100 E31.37185
G0 F3600 X125.349 Y115.489
G1 F2100 E32.17185
G1 F1800 X125.349 Y121.64 E32.37644
G0 F3600 X125.811 Y120.015
G1 F1800 X124.21 Y120.015 E32.42969
G1 F2100 E31.62969
G0 F3600 X125.349 Y132.862
G1 F2100 E32.42969
G1 F1800 X125.349 Y139.027 E32.63473
G1 F2100 E31.83473
G0 F3600 X126.587 Y138.684
G1 F2100 E32.63473
G1 F1800 X123.411 Y138.684 E32.74037
G0 F3600 X123.911 Y136.017
G1 F1800 X125.957 Y136.017 E32.80842
G0 F3600 X125.571 Y133.35
G1 F1800 X124.439 Y133.35 E32.84607
G1 F2100 E32.04607
G0 F3600 X104.463 Y133.35
G1 F2100 E32.84607
G1 F1800 X102.978 Y133.35 E32.89546
G0 F3600 X104.013 Y131.484
G1 F1800 X104.013 Y135.603 E33.03246
G0 F3600 X103.997 Y136.017
G1 F1800 X103.108 Y136.017 E33.06203
G1 F2100 E32.26203
G0 F3600 X103.113 Y135.972
G0 X104.013 Y123.015
G1 F2100 E33.06203
G1 F1800 X104.013 Y118.782 E33.20282
G0 F3600 X104.255 Y120.015
